dist/assets/images/article/warningImg.svg

<svg width="47" height="47" viewBox="0 0 47 47" fill="none" xmlns="http://www.w3.org/2000/svg">
<path d="M23.5 9.79199C21.88 9.79199 20.5625 11.1094 20.5625 12.7295C20.5625 14.3496 21.8799 15.667 23.5 15.667C25.1201 15.667 26.4375 14.3496 26.4375 12.7295C26.4375 11.1094 25.12 9.79199 23.5 9.79199Z" fill="white"/>
<path d="M21.4438 17.625H25.5562C26.0433 17.625 26.4374 18.063 26.4375 18.6042V38.1875C26.4375 38.7287 26.0433 39.1667 25.5562 39.1667H22.2271C21.74 39.1667 21.3459 38.7287 21.3459 38.1875V22.5209H21.4438C20.9567 22.5209 20.5625 22.0829 20.5625 21.5417V18.6042C20.5625 18.063 20.9567 17.625 21.4438 17.625Z" fill="white"/>
<path d="M23.5 0C10.5423 0 0 10.5423 0 23.5C0 36.4577 10.5423 47 23.5 47C36.4577 47 47 36.4577 47 23.5C47 10.5423 36.4577 0 23.5 0ZM23.5 45.0417C11.6219 45.0417 1.9583 35.3781 1.9583 23.5C1.9583 11.6219 11.6219 1.9583 23.5 1.9583C35.3781 1.9583 45.0417 11.6219 45.0417 23.5C45.0417 35.3781 35.3781 45.0417 23.5 45.0417Z" fill="white"/>
<path d="M23.4987 1.95898C11.6208 1.95898 1.95703 11.6228 1.95703 23.5007C1.95703 35.3785 11.6208 45.0423 23.4987 45.0423C35.3766 45.0423 45.0404 35.3785 45.0404 23.5007C45.0404 11.6228 35.3766 1.95898 23.4987 1.95898ZM23.4987 43.2472C12.6104 43.2472 3.75214 34.389 3.75214 23.5007C3.75214 12.6123 12.6104 3.7541 23.4987 3.7541C34.387 3.7541 43.2453 12.6123 43.2453 23.5007C43.2453 34.389 34.387 43.2472 23.4987 43.2472Z" fill="white"/>
</svg>

<svg width="47" height="47" fill="none" xmlns="http://www.w3.org/2000/svg"><path d="M23.5 9.792a2.94 2.94 0 00-2.938 2.938 2.94 2.94 0 002.938 2.937 2.94 2.94 0 002.938-2.938A2.94 2.94 0 0023.5 9.793zm-2.056 7.833h4.112c.487 0 .881.438.881.98v19.582c0 .542-.394.98-.88.98h-3.33c-.487 0-.881-.438-.881-.98V22.521h.098c-.487 0-.881-.438-.881-.98v-2.937c0-.541.394-.979.88-.979z" fill="#fff"/><path d="M23.5 0C10.542 0 0 10.542 0 23.5S10.542 47 23.5 47 47 36.458 47 23.5 36.458 0 23.5 0zm0 45.042c-11.878 0-21.542-9.664-21.542-21.542 0-11.878 9.664-21.542 21.542-21.542 11.878 0 21.542 9.664 21.542 21.542 0 11.878-9.664 21.542-21.542 21.542z" fill="#fff"/><path d="M23.499 1.959c-11.878 0-21.542 9.664-21.542 21.542 0 11.878 9.664 21.541 21.542 21.541 11.878 0 21.541-9.663 21.541-21.541S35.377 1.959 23.5 1.959zm0 41.288c-10.889 0-19.747-8.858-19.747-19.746 0-10.889 8.858-19.747 19.747-19.747 10.888 0 19.746 8.858 19.746 19.747 0 10.888-8.858 19.746-19.746 19.746z" fill="#fff"/></svg>
